X: 1
T: String Quartet in D Major opus 20 no 4 mvt 4
C: Franz Joseph Haydn
%%abc-version 2.0
%%abcx-abcm2ps-target-version 5.9.1 (29 Sep 2008)
%%abc-creator hum2abc beta
%%abcx-conversion-date 2021/02/14 14:38:35
%%abc-copyright Copyright (c) 1994, 2000 Center for Computer Assisted Research in the Humanities
%%abc-edited-by Frances Bennion
%%abcx-initial-encoding-date 1997/04/15
%%gracespace 0 6 6
%%humdrum-veritas 3217131438
%%humdrum-veritas-data 175173070
%%linebreak <none>
%%barnumbers 0
L: 1/8
M: 4/4
N: Derived from op20n4-04.krn
Q: "Presto e scherzando"
%%staves [1 2 3 4]
V: 1
V: 2
V: 3 clef=alto
V: 4 clef=bass
K: D
[V:1]z7 a [I:setbarnb1]|
[V:2]z7 z |
[V:3]z7 z |
[V:4]z7 z |
[V:1]f/g/a/f/ ge cB/A/ Bc |
[V:2]z8 |
[V:3]z8 |
[V:4]z8 |
[V:1]d2 ^d2 e2 zf |
[V:2]d2 =c2 B2 z2 |
[V:3]A4 G2 z2 |
[V:4]F4 G2 z2 |
[V:1]g/a/b/g/ eg fe/d/ cd |
[V:2]z8 |
[V:3]z8 |
[V:4]z8 |
[V:1]e2 ^G2 A2 zd |
[V:2]C2 D2 E2 z2 |
[V:3]E2 D2 C2 z2 |
[V:4]A,2 B,2 C2 z2 |
[V:1]e/f/g/e/ fd' (3d'/c'/b/a (3d'/c'/b/a |
[V:2]z4 dz dz |
[V:3]z4 Az Az |
[V:4]z4 F,z F,z |
[V:1](3b/a/g/f (3a/g/f/e d2 zA |
[V:2]Bz Gz F2 z2 |
[V:3]Dz Cz D2 z2 |
[V:4]G,z A,z D,2 z2 |
[V:1]a2 a>^g a2 e2 |
[V:2]A2 A>^G A2 E2 |
[V:3]A2 A>^G A2 E2 |
[V:4]A,2 A,>^G, A,2 E,2 |
[V:1]=f4 cz [f/c/][f/c/][f/c/][f/c/]|
[V:2]=F4 Cz3 |
[V:3]=F4 Cz3 |
[V:4]=F,4 C,z3 |
[V:1][c=f]z [f/c/][f/c/][f/c/][f/c/][cf] zf/c/ f/c/|
[V:2]z7 c |
[V:3]z7 c |
[V:4]z7 C |
[V:1]d2 A2 =F3 E/D/ |
[V:2]d2 A2 =F3 E/D/ |
[V:3]d2 A2 =F3 E/D/ |
[V:4]D2 A,2 =F,3 E,/D,/ |
[V:1]C2 A2 A,2 za |
[V:2]C2 A2 A,2 z2 |
[V:3]C2 A2 A,2 z2 |
[V:4]C,2 A,2 A,,2 z2 |
[V:1]f/g/a/f/ ge cB/A/ Bc |
[V:2]z8 |
[V:3]z8 |
[V:4]z8 |
[V:1]d2 ^d2 e2 z2 |
[V:2]d2 =c2 B2 z2 |
[V:3]A4 G2 z2 |
[V:4]F4 G2 z2 |
[V:1]e2 ^e2 f2 zf |
[V:2]B6 zA |
[V:3]G4 A2 zB- |
[V:4]G4 ^D2 zD |
[V:1]g2 zg ^g2 zg |
[V:2]G2 zB e2 zB |
[V:3]B2 ze B2 zE |
[V:4]E2 zE D2 zD |
[V:1]a2 zg f^a b=a |
[V:2]c2 ze d2 zf |
[V:3]A,2 z2 <A,2 z^D |
[V:4]C2 zC DF, G,z |
[V:1]g^a b=a g^a bg |
[V:2]e2 zf e2 ze |
[V:3]E2 z^D E2 zB |
[V:4]zF, G,z2 F, G,E, |
[V:1]f4 e2 ze |
[V:2]d4 c2 zc |
[V:3]A4 A,2 z2 |
[V:4]A,4 A,,2 z2 |
[V:1]c/d/e/c/ dB A/B/c/A/ B^G |
[V:2]A/B/c/A/ B^G E4- |
[V:3]z2 >E2 C/D/E/C/ DB, |
[V:4]z7 E, |
[V:1]Ae2 e2 e2 e |
[V:2]EA, ^G,D C/D/E/C/ DB, |
[V:3]A,/B,/C/A,/ B,^G, A,A ^GB |
[V:4]C,/D,/E,/C,/ D,B,, A,,/B,,/C,/A,,/ B,,^G,, |
[V:1]c/d/e/c/ A/B/c/A/ E2 z2 |
[V:2]Ce ee Ee ee |
[V:3]Ec cc Cc cc |
[V:4]A,,A,, A,,A,, A,,A,, A,,A,, |
[V:1]=c/d/e/c/ A/B/c/A/ E2 z2 |
[V:2]Ee ee Ee ee |
[V:3]=C=c cc Cc cc |
[V:4]A,,A,, A,,A,, A,,A,, A,,A,, |
[V:1]a/^g/a/g/ a/g/a/g/ a2 [A3/=F3/][F/A/]|
[V:2][A=f][fA] [fA][fA] [f2A2] [A3/=F3/][F/A/]|
[V:3]=cc cc c2 =C3/C/ |
[V:4]=F,,F,, F,,F,, F,,2 =F,3/F,/ |
[V:1][A2=F2] [_b=c]>[bc] [b2c2] _B3/B/ |
[V:2][A2=F2] G>G G2 G3/G/ |
[V:3]=C2 C>C C2 C3/C/ |
[V:4]=F,2 E,>E, E,2 E,3/E,/ |
[V:1]_B2 z4 A3/A/ |
[V:2]G2 z4 =F3/F/ |
[V:3]=C2 z4 C3/C/ |
[V:4]E,2 z4 =F,3/F,/ |
[V:1]A2 z4 A3/A/ |
[V:2]=F2 z4 ^D3/D/ |
[V:3]=C2 z4 C3/C/ |
[V:4]=F,2 z4 F,3/F,/ |
[V:1](3:2:2A2-A//^G/A/ B/=cc BA |
[V:2]^D2 z4 D2 |
[V:3]=C2 z4 A,2 |
[V:4]=F,2 z4 =F,,2 |
[V:1]^GA B=c2 <B2 A |
[V:2]E2 z4 ^D2 |
[V:3]B,2 z4 A,2 |
[V:4]E,,2 z4 =F,,2 |
[V:1]^GA B=c2 <B2 A |
[V:2]E2 z4 ^D2 |
[V:3]B,2 z4 A,2 |
[V:4]E,,2 z4 =F,,2 |
[V:1]^GA B=c2 <B2 E |
[V:2]E2 z4 zE |
[V:3]B,2 z4 zE |
[V:4]E,,2 z4 zE, |
[V:1]D/C/D/C/ D/C/D/C/ D/C/D/C/ D/C/D/C/ |
[V:2]D/C/D/C/ D/C/D/C/ D/C/D/C/ D/C/D/C/ |
[V:3]D/C/D/C/ D/C/D/C/ D/C/D/C/ D/C/D/C/ |
[V:4]D,/C,/D,/C,/ D,/C,/D,/C,/ D,/C,/D,/C,/ D,/C,/D,/C,/ |
[V:1]D2 ^G,>G, G,3 d |
[V:2]D2 ^G,>G, G,3 B |
[V:3]D2 ^G,>G, G,3 E |
[V:4]D,2 ^G,,>G,, G,,4 |
[V:1]c/d/e/c/ A/B/c/A/ F2 z2 |
[V:2]A2 z2 F/^G/A/F/ D/E/F/D/ |
[V:3]E4 A,2 ^A,2 |
[V:4]A,,2 C,2 D,4- |
[V:1]d/e/f/d/ B/c/d/B/ ^G2 z2 |
[V:2]B,2 z2 ^G/A/B/G/ E/F/G/E/ |
[V:3]B,6 ^B,2 |
[V:4]D,2 ^D,2 E,4- |
[V:1]e/f/^g/e/ c/d/e/c/ A2 z2 |
[V:2]C2 z2 A/B/c/A/ F/^G/A/F/ |
[V:3]C6 CB,/C/ |
[V:4]E,2 ^E,2 F,4- |
[V:1]f/^g/a/f/ d/e/f/d/ B2 z2 |
[V:2]D2 z2 B/c/d/B/ ^G/A/B/G/ |
[V:3]D6 ^D2 |
[V:4]F,2 F,2 ^G,4- |
[V:1]^g/a/b/g/ e/f/g/e/ c2 a2 |
[V:2]E2 z4 c2 |
[V:3]E4 c/d/e/c/ A/B/c/A/ |
[V:4]G,2 ^G,2 A,/B,/C/A,/ F,/G,/A,/F,/ |
[V:1]d'6 c'2 |
[V:2]f4 e4- |
[V:3]F/^G/A/F/ D/E/F/D/ B,/C/D/B,/ C/D/E/C/ |
[V:4]D,/E,/F,/D,/ B,,/C,/D,/B,,/ ^G,,/A,,/B,,/G,,/ A,,/B,,/C,/A,,/ |
[V:1]d'2 c'2 b/c'/d'/b/ e^g |
[V:2]e4 d2 z2 |
[V:3]B,B cE F2 zB, |
[V:4]^G,,^G, A,A,, D,2 zE, |
[V:1]A2 AA BB cc |
[V:2]aA z6 |
[V:3]C2 C,2 D,2 E,2 |
[V:4]A,,A, C,A, D,A, E,A, |
[V:1]dd cc dd cc |
[V:2]aA z6 |
[V:3]F,2 E,2 F,2 E,2 |
[V:4]F,A, E,A, F,A, E,A, |
[V:1]BB AA BB EE |
[V:2]aA z6 |
[V:3]D,2 C,2 D,2 E,2 |
[V:4]D,A, C,A, D,A, E,^G, |
[V:1]Az A/B/c/A/ B/c/d/B/ c/d/e/c/ |
[V:2]aA za za za |
[V:3]A,2 zC zD zE |
[V:4]A,,A, C,A, D,A, E,A, |
[V:1]d/e/f/d/ c/d/e/c/ d/e/f/d/ c/d/e/c/ |
[V:2]za za za za |
[V:3]zF zE zF zE |
[V:4]F,A, E,A, F,A, E,A, |
[V:1]B/c/d/B/ A/B/c/A/ B/c/d/B/ ^G/A/B/G/ |
[V:2]za za za za |
[V:3]zD zC zD zE |
[V:4]D,A, C,A, D,A, E,E,, |
[V:1]Az e^d ed ed |
[V:2]za c^B cB cB |
[V:3]A,2 z6 |
[V:4]A,,2 z6 |
[V:1]ez e/^d/e/d/ ez ef |
[V:2]cz c/^B/c/B/ cz c^d |
[V:3]AA, z2 AA, z2 |
[V:4]A,A,, z2 A,A,, z2 |
[V:1]gf gf gz g/f/g/f/ |
[V:2]e^d ed ez e/d/e/d/ |
[V:3]z4 AA, z2 |
[V:4]z4 A,A,, z2 |
[V:1]gz A/B/c/B/ A/B/c/d/ e/f/g/a/ |
[V:2]ez7 |
[V:3]AA, z6 |
[V:4]A,A,, z6 |
[V:1]g4 f2 e2 |
[V:2]e4 d2 c2 |
[V:3]z4 F4 |
[V:4]^A,A, A,A, A,A, A,A, |
[V:1]d6 eB |
[V:2]B2 F2 G4- |
[V:3]F4 D4 |
[V:4]B,B, B,B, B,B, B,B, |
[V:1]d2 =c2 c4- |
[V:2]G6 AE |
[V:3]E6 FG |
[V:4]A,A, A,A, A,A, A,A, |
[V:1]c=c' af d2 =c2 |
[V:2]F8- |
[V:3]FA AA A4- |
[V:4]DD DD DD DD |
[V:1]=c2 B2 B4- |
[V:2]F8 |
[V:3]A8 |
[V:4]^DD DD DD DD |
[V:1]B2 g2 e2 d2 |
[V:2]G2 e2 c2 B2 |
[V:3]G2 E4 ^E2 |
[V:4]EE EE EE ^EE |
[V:1]c2 f/^e/f/e/ f4- |
[V:2]^A2 z2 F/^G/A/F/ A/B/c/A/ |
[V:3]F2 z2 F2 E2 |
[V:4]F2 z4 zF |
[V:1]f2 f/^e/f/e/ f3 =e |
[V:2]B2 c2 e3 F |
[V:3]D2 ^A,2 CB,/A,/ B,C |
[V:4]D/E/F/D/ EC ^A,^G,/F,/ G,A, |
[V:1]d/e/f/d/ B/c/d/B/ b4- |
[V:2]F2 z2 B/c/^d/B/ d/e/f/d/ |
[V:3]D2 z2 B2 A2 |
[V:4]B,2 z4 zB, |
[V:1]b2 b/^a/b/a/ b3 =a |
[V:2]e2 f2 a3 B |
[V:3]G2 ^D2 FE/D/ EF |
[V:4]G,/A,/B,/G,/ A,F, ^D,C,/B,,/ C,D, |
[V:1]g/a/b/g/ e/f/g/e/ e'4- |
[V:2]B2 z2 E/F/^G/E/ G/A/B/G/ |
[V:3]G2 z2 e2 d2 |
[V:4]E,2 z4 zE |
[V:1]e'2 e'/^d'/e'/d'/ e'3 d |
[V:2]A2 B2 d3 E |
[V:3]c2 ^G2 BA/G/ AB |
[V:4]C/D/E/C/ DB, ^G,F,/E,/ F,G, |
[V:1]c/d/e/c/ A/B/c/A/ a4- |
[V:2]E2 z2 A/B/c/A/ c/d/e/c/ |
[V:3]c2 z2 A2 G2 |
[V:4]A,2 z4 zA, |
[V:1]a2 a/^g/a/g/ a3 =g |
[V:2]d2 e2 g3 A |
[V:3]F2 C2 ED/C/ DE |
[V:4]F,/G,/A,/F,/ G,E, C,B,,/A,,/ B,,C, |
[V:1]f/g/a/f/ d/e/f/d/ d'4- |
[V:2]A2 z2 D/E/F/D/ F/G/A/F/ |
[V:3]F2 z2 d2 =c2 |
[V:4]D,2 z4 zD |
[V:1]d'2 d'/c'/d'/c'/ d'4 |
[V:2]G2 A2 =c3 D |
[V:3]B2 F2 AG/F/ GA |
[V:4]B,/=C/D/B,/ CA, F,E,/D,/ E,F, |
[V:1]b/=c'/d'/b/ g/a/b/g/ dz3 |
[V:2]DB BB BB BB |
[V:3]BD DD DD DD |
[V:4]G,G, G,G, G,G, G,G, |
[V:1]B/c/d/B/ G/A/B/G/ F2 ^E2 |
[V:2]BD DD DB, B,B, |
[V:3]DB, B,B, B,G, G,G, |
[V:4]G,G, G,G, G,G, G,G, |
[V:1]F2 f>f f2 g3/g/ |
[V:2]^A,2 ^A>A A2 A3/A/ |
[V:3]F,2 C>C C2 C3/C/ |
[V:4]F,2 F,>F, F,2 E,3/E,/ |
[V:1]g2 z4 ^A3/A/ |
[V:2]^A2 z4 G3/G/ |
[V:3]C2 z4 C3/C/ |
[V:4]E,2 z4 E,3/E,/ |
[V:1]^A2 z6 |
[V:2]G2 z6 |
[V:3]C2 z6 |
[V:4]E,2 z6 |
[V:1]z2 BB cc FF |
[V:2]z8 |
[V:3]z2 >D2 zE zF |
[V:4]z2 D,B, E,B, F,^A, |
[V:1]BB B/c/d/B/ c/d/e/c/ F^A |
[V:2]bB z6 |
[V:3]zG zD zE zF |
[V:4]G,B, D,B, E,B, F,C |
[V:1]B2 BB cc FF |
[V:2]bB z6 |
[V:3]zB, zD zE zF |
[V:4]B,,B, D,B, E,B, F,^A, |
[V:1]BB B/c/d/B/ c/d/e/c/ F^A |
[V:2]bB z6 |
[V:3]zG zD zE zF |
[V:4]G,B, D,B, E,B, F,C |
[V:1]B2 c2 d4- |
[V:2]bB z4 F2 |
[V:3]B,8- |
[V:4]B,8- |
[V:1]d2 ^d2 e4- |
[V:2]G6 ^G2 |
[V:3]B,2 ^B,2 C4- |
[V:4]B,2 ^B,2 C4- |
[V:1]e2 ^e2 f4- |
[V:2]A6 ^A2 |
[V:3]C4 D4 |
[V:4]C4 D4 |
[V:1]f2 ag g4- |
[V:2]B6 _BA |
[V:3]^D4 E2 =D2 |
[V:4]^D4 E2 =D2 |
[V:1]gz g/f/g/f/ gz g/f/g/f/ |
[V:2]Az e/^d/e/d/ ez e/d/e/d/ |
[V:3]C2 z2 A,2 z2 |
[V:4]C2 z2 C2 z2 |
[V:1]gz A/B/c/B/ A/B/c/d/ e/f/g/a/ |
[V:2]ez7 |
[V:3]A,2 z6 |
[V:4]C2 z6 |
[V:1]f/g/a/f/ ge cB/A/ Bc |
[V:2]z8 |
[V:3]z8 |
[V:4]z8 |
[V:1]d2 ^d2 e2 zf |
[V:2]d2 =c2 B2 z2 |
[V:3]A4 G2 z2 |
[V:4]F4 G2 z2 |
[V:1]g/a/b/g/ eg fe/d/ cd |
[V:2]z8 |
[V:3]z8 |
[V:4]z8 |
[V:1]e2 ^G2 A2 zd |
[V:2]C2 D2 E2 z2 |
[V:3]E2 D2 C2 z2 |
[V:4]A,2 B,2 C2 z2 |
[V:1]e/f/g/e/ fd' (3d'/c'/b/a (3d'/c'/b/a |
[V:2]z4 dz dz |
[V:3]z4 Az Az |
[V:4]z4 F,z F,z |
[V:1](3b/a/g/f (3a/g/f/e d2 zA |
[V:2]Bz Gz F2 z2 |
[V:3]Dz Cz D2 z2 |
[V:4]G,z A,z D,2 z2 |
[V:1]a2 a>^g a2 e2 |
[V:2]A2 A>^G A2 E2 |
[V:3]A2 A>^G A2 E2 |
[V:4]A,2 A,>^G, A,2 E,2 |
[V:1]=f4 cz [f/c/][f/c/][f/c/][f/c/]|
[V:2]=F4 Cz3 |
[V:3]=F4 Cz3 |
[V:4]=F,4 C,z3 |
[V:1][=fc]z [f/c/][f/c/][f/c/][f/c/][fc] zf/c/ f/c/|
[V:2]z7 c |
[V:3]z7 c |
[V:4]z7 C |
[V:1]d2 A2 =F3 E/D/ |
[V:2]d2 A2 =F3 E/D/ |
[V:3]d2 A2 =F3 E/D/ |
[V:4]D2 A,2 =F,3 E,/D,/ |
[V:1]C2 EE =FF ^GG |
[V:2]AA, z6 |
[V:3]C2 C,2 D,2 E,2 |
[V:4]A,,A, C,A, D,A, E,A, |
[V:1]A2 E/=F/G/E/ F/G/A/F/ D/E/F/D/ |
[V:2]AA, z6 |
[V:3]^E,2 C,2 D,2 D2 |
[V:4]=F,A, C,A, D,A, F,A, |
[V:1]E2 EE =FF ^GG |
[V:2]AA, z6 |
[V:3]C2 C,2 D,2 E,2 |
[V:4]A,,A, C,A, D,A, E,A, |
[V:1]A2 E/=F/G/E/ F/G/A/F/ D/E/F/D/ |
[V:2]AA, z6 |
[V:3]^E,2 C,2 D,2 D2 |
[V:4]=F,A, C,A, D,A, F,A, |
[V:1]E2 (3:2:2z4 z/a|
[V:2]AA, z4 zf |
[V:3]C2 z6 |
[V:4]A,,2 z6 |
[V:1]f/g/a/f/ ge d/e/f/d/ ec |
[V:2]d/e/f/d/ ec A4- |
[V:3]z2 >A2 F/G/A/F/ GE |
[V:4]z7 A, |
[V:1]da2 a2 a2 a |
[V:2]AD CG F/G/A/F/ GE |
[V:3]D/E/F/D/ EC DD CE |
[V:4]F,/G,/A,/F,/ G,E, D,/E,/F,/D,/ E,C, |
[V:1]f/g/a/f/ d/e/f/d/ A2 z2 |
[V:2]FA AA A,A AA |
[V:3]A,F FF F,F FF |
[V:4]D,D, D,D, D,D, D,D, |
[V:1]=f/g/a/f/ d/e/f/d/ A2 z2 |
[V:2]A,A AA A,A AA |
[V:3]=F,=F FF F,F FF |
[V:4]D,D, D,D, D,D, D,D, |
[V:1]d'/c'/d'/c'/ d'/c'/d'/c'/ d'2 [_B,3/D3/][B,/D/]|
[V:2][D_B][BD] [DB][BD] [B2D2] [D3/_B,3/][B,/D/]|
[V:3]=FF FF F2 =F,3/F,/ |
[V:4]_B,,B,, B,,B,, B,,2 B,,3/B,,/ |
[V:1][_B,2D2] [_e=F]>[eF] [e2F2] _E3/E/ |
[V:2][_B,2D2] =c>c c2 =C3/C/ |
[V:3]=F,2 F,>F, F,2 F,3/F,/ |
[V:4]_B,,2 A,,>A,, A,,2 A,,3/A,,/ |
[V:1]_E2 z4 D3/D/ |
[V:2]=C2 z4 _B,3/B,/ |
[V:3]=F,2 z4 F,3/F,/ |
[V:4]A,,2 z4 _B,,3/B,,/ |
[V:1]D2 z4 d3/d/ |
[V:2]_B,2 z4 ^G3/G/ |
[V:3]=F2 z4 F3/F/ |
[V:4]_B,,2 z4 _B,3/B,/ |
[V:1](3:2:2d2-d//c/d/ e/=ff ed |
[V:2]^G2 z4 =G2 |
[V:3]=F2 z4 D2 |
[V:4]_B,2 z4 B,2 |
[V:1]cd e=f2 <e2 d |
[V:2]A2 z4 ^G2 |
[V:3]E2 z4 D2 |
[V:4]A,2 z4 _B,2 |
[V:1]cd e=f2 <e2 d |
[V:2]A2 z4 ^G2 |
[V:3]E2 z4 D2 |
[V:4]A,2 z4 _B,2 |
[V:1]cd e=f2 <e2 A |
[V:2]A2 z4 zA |
[V:3]E2 z4 zA |
[V:4]A,2 z4 zA, |
[V:1]G/F/G/F/ G/F/G/F/ G/F/G/F/ G/F/G/F/ |
[V:2]G/F/G/F/ G/F/G/F/ G/F/G/F/ G/F/G/F/ |
[V:3]G/F/G/F/ G/F/G/F/ G/F/G/F/ G/F/G/F/ |
[V:4]G,/F,/G,/F,/ G,/F,/G,/F,/ G,/F,/G,/F,/ G,/F,/G,/F,/ |
[V:1]G2 _B,>B, A,3 g |
[V:2]G2 _B,>B, A,3 e |
[V:3]G2 _B,>B, A,4- |
[V:4]G,2 _B,,>B,, A,,2 C,2 |
[V:1]f/g/a/f/ d/e/f/d/ B2 z2 |
[V:2]d2 z2 B/c/d/B/ G/A/B/G/ |
[V:3]A,2 D4 ^D2 |
[V:4]D,2 F,2 G,4- |
[V:1]g/a/b/g/ e/f/g/e/ c2 z2 |
[V:2]E2 z2 c/d/e/c/ A/B/c/A/ |
[V:3]E6 ^E2 |
[V:4]G,2 ^G,2 A,4- |
[V:1]a/b/c'/a/ f/g/a/f/ d2 z2 |
[V:2]F2 z2 d/e/f/d/ B/c/d/B/ |
[V:3]F6 G2 |
[V:4]A,2 ^A,2 B,4- |
[V:1]b/c'/d'/b/ g/a/b/g/ e2 z2 |
[V:2]G2 z2 e/f/g/e/ c/d/e/c/ |
[V:3]G6 ^G2 |
[V:4]B,2 B,2 C4- |
[V:1]c'/d'/e'/c'/ a/b/c'/a/ f2 d'd |
[V:2]A2 z6 |
[V:3]A4 F/G/A/F/ D/E/F/D/ |
[V:4]C2 C2 D/E/F/D/ B,/C/D/B,/ |
[V:1]g6 f2 |
[V:2]B4 A4- |
[V:3]B,/C/D/B,/ G,/A,/B,/G,/ E,/F,/G,/E,/ F,/G,/A,/F,/ |
[V:4]G,/A,/B,/G,/ E,/F,/G,/E,/ C,/D,/E,/C,/ D,/E,/F,/D,/ |
[V:1]g2 fd e/f/g/e/ Ac |
[V:2]A4 B2 GE |
[V:3]E,2 F,2 G,2 A,2 |
[V:4]C,C DD, G,G,, A,,A, |
[V:1]D2 dd ee ff |
[V:2]F2 z6 |
[V:3]D,2 F,2 G,2 A,2 |
[V:4]D,D F,D G,D A,D |
[V:1]gg ff gg ff |
[V:2]dD z6 |
[V:3]B,2 A,2 B,2 A,2 |
[V:4]B,D A,D B,D A,D |
[V:1]ee dd ee AA |
[V:2]dD z6 |
[V:3]G,2 F,2 G,2 A,2 |
[V:4]G,D F,D G,D A,C |
[V:1]d2 d/e/f/d/ e/f/g/e/ f/g/a/f/ |
[V:2]dD zd' zd' zd' |
[V:3]D,2 zF zG zA |
[V:4]D,D F,D G,D A,D |
[V:1]g/a/b/g/ f/g/a/f/ g/a/b/g/ f/g/a/f/ |
[V:2]zd' zd' zd' zd' |
[V:3]zB zA zB zA |
[V:4]B,D A,D B,D A,D |
[V:1]e/f/g/e/ d/e/f/d/ e/f/g/e/ c/d/e/c/ |
[V:2]zd' zd' zd' zd' |
[V:3]zG zF zG zA |
[V:4]G,D F,D G,D A,C |
[V:1]d2 a^g ag ag |
[V:2]zd' f^e fe fe |
[V:3]D2 z6 |
[V:4]D,2 z6 |
[V:1]az a/^g/a/g/ az ab |
[V:2]fz f/^e/f/e/ fz fg |
[V:3]DD, z2 DD, z2 |
[V:4]DD, z2 DD, z2 |
[V:1]=c'4 b2 a2 |
[V:2]a4 g2 f2 |
[V:3]^DD DD DD DD |
[V:4]^DD DD DD DD |
[V:1]g6 fe |
[V:2]e6 dc |
[V:3]EE EE ^A,A, A,A, |
[V:4]EE EE ^A,A, A,A, |
[V:1]az a/^g/a/g/ az ff |
[V:2]fz f/^e/f/e/ fz dd |
[V:3]DD, z4 AA |
[V:4]DD, z2 DD, z2 |
[V:1]fz dd dz FF |
[V:2]dz FF Fz A,A, |
[V:3]Az AA Az DD |
[V:4]DD, z2 DD, z2 |
[V:1]G6 EC |
[V:2]B,6 CE |
[V:3]B,6 G,E, |
[V:4]D,C, D,C, D,C, D,D,, |
[V:1]C4 D2 z2 |]
[V:2]E4 D2 z2 |]
[V:3]G,4 F,2 z2 |]
[V:4]D,,4- D,,2 z2 |]

